Assets/SettingsPanel/VolumeMute.svg

<?xml version="1.0" encoding="UTF-8"?>
<svg xmlns="http://www.w3.org/2000/svg" xmlns:xlink="http://www.w3.org/1999/xlink" width="32px" height="32px" viewBox="0 0 32 32" version="1.1">
<g id="surface1">
<path style=" stroke:none;fill-rule:nonzero;fill:rgb(0%,0%,0%);fill-opacity:1;" d="M 16.902344 3.457031 C 17.15625 3.527344 17.40625 3.59375 17.667969 3.667969 C 18.558594 7.496094 18.824219 11.164062 18.796875 15.089844 C 18.792969 16 18.796875 16.90625 18.804688 17.816406 C 18.808594 21.429688 18.488281 24.808594 17.667969 28.332031 C 16.09375 28.722656 16.09375 28.722656 15.238281 28.222656 C 14.980469 27.996094 14.722656 27.773438 14.457031 27.542969 C 14.171875 27.296875 13.882812 27.050781 13.585938 26.800781 C 13.285156 26.535156 12.980469 26.273438 12.667969 26 C 12.023438 25.46875 11.375 24.941406 10.730469 24.417969 C 10.4375 24.179688 10.148438 23.9375 9.847656 23.691406 C 9.566406 23.464844 9.289062 23.234375 9 23 C 8.746094 22.753906 8.488281 22.507812 8.226562 22.253906 C 7.050781 21.480469 6.007812 21.492188 4.644531 21.5 C 2.234375 21.511719 2.234375 21.511719 1.265625 20.773438 C 0.535156 19.828125 0.496094 19.347656 0.488281 18.167969 C 0.488281 17.816406 0.484375 17.464844 0.484375 17.105469 C 0.488281 16.738281 0.496094 16.375 0.5 16 C 0.496094 15.636719 0.488281 15.269531 0.484375 14.894531 C 0.488281 14.371094 0.488281 14.371094 0.488281 13.832031 C 0.492188 13.511719 0.492188 13.195312 0.496094 12.863281 C 0.71875 11.742188 1.09375 11.347656 2 10.667969 C 2.703125 10.515625 2.703125 10.515625 3.441406 10.535156 C 3.683594 10.539062 3.921875 10.542969 4.171875 10.546875 C 4.472656 10.558594 4.773438 10.570312 5.082031 10.582031 C 6.527344 10.625 6.527344 10.625 8 10.667969 C 8 13.308594 8 15.945312 8 18.667969 C 7.558594 18.667969 7.121094 18.667969 6.667969 18.667969 C 6.667969 16.464844 6.667969 14.265625 6.667969 12 C 6.136719 12.035156 5.609375 12.070312 5.0625 12.105469 C 4.765625 12.125 4.46875 12.144531 4.160156 12.164062 C 3.34375 12.285156 3.34375 12.285156 2.734375 12.679688 C 2.09375 13.722656 2.1875 14.816406 2.207031 16 C 2.203125 16.363281 2.203125 16.363281 2.195312 16.730469 C 2.203125 17.695312 2.230469 18.476562 2.695312 19.328125 C 3.679688 19.851562 4.582031 19.742188 5.6875 19.730469 C 8.429688 19.808594 9.742188 20.808594 11.667969 22.667969 C 12.320312 23.214844 12.980469 23.753906 13.644531 24.292969 C 13.945312 24.539062 14.242188 24.785156 14.550781 25.039062 C 15.351562 25.699219 15.351562 25.699219 16.332031 26.332031 C 16.730469 23.191406 16.71875 20.054688 16.710938 16.894531 C 16.707031 16 16.710938 15.109375 16.710938 14.214844 C 16.714844 11.351562 16.691406 8.515625 16.332031 5.667969 C 15.589844 6.25 14.847656 6.832031 14.105469 7.417969 C 13.792969 7.664062 13.792969 7.664062 13.472656 7.914062 C 13.265625 8.074219 13.0625 8.234375 12.851562 8.402344 C 12.648438 8.558594 12.445312 8.71875 12.238281 8.878906 C 11.734375 9.277344 11.246094 9.699219 10.765625 10.121094 C 10 10.667969 10 10.667969 8.667969 10.667969 C 8.703125 9.785156 8.835938 9.183594 9.425781 8.515625 C 10.007812 7.988281 10.601562 7.492188 11.207031 7 C 11.511719 6.746094 11.511719 6.746094 11.820312 6.488281 C 12.425781 5.980469 13.046875 5.488281 13.667969 5 C 13.871094 4.832031 14.074219 4.664062 14.28125 4.492188 C 15.792969 3.304688 15.792969 3.304688 16.902344 3.457031 Z M 16.902344 3.457031 "/>
<path style=" stroke:none;fill-rule:nonzero;fill:rgb(0%,0%,0%);fill-opacity:1;" d="M 21.332031 10.667969 C 22.96875 10.753906 23.675781 11.535156 24.769531 12.6875 C 25.066406 12.992188 25.359375 13.300781 25.664062 13.617188 C 25.882812 13.851562 26.105469 14.089844 26.332031 14.332031 C 27.886719 13.691406 28.808594 12.511719 29.925781 11.300781 C 30.667969 10.667969 30.667969 10.667969 32 10.667969 C 31.859375 12.308594 31.148438 12.992188 29.980469 14.105469 C 29.671875 14.398438 29.367188 14.691406 29.050781 14.996094 C 28.8125 15.21875 28.578125 15.4375 28.332031 15.667969 C 28.976562 17.21875 30.152344 18.140625 31.367188 19.261719 C 32 20 32 20 32 21.332031 C 30.355469 21.195312 29.675781 20.484375 28.5625 19.3125 C 28.269531 19.007812 27.972656 18.699219 27.671875 18.382812 C 27.449219 18.148438 27.226562 17.910156 27 17.667969 C 25.449219 18.308594 24.523438 19.488281 23.40625 20.699219 C 22.667969 21.332031 22.667969 21.332031 21.332031 21.332031 C 21.472656 19.691406 22.183594 19.007812 23.355469 17.894531 C 23.660156 17.601562 23.96875 17.308594 24.28125 17.003906 C 24.636719 16.671875 24.636719 16.671875 25 16.332031 C 24.492188 15.117188 23.761719 14.378906 22.8125 13.480469 C 21.371094 12.109375 21.371094 12.109375 21 11 C 21.109375 10.890625 21.21875 10.78125 21.332031 10.667969 Z M 21.332031 10.667969 "/>
</g>
</svg>

<svg xmlns="http://www.w3.org/2000/svg" width="32" height="32" viewBox="0 0 32 32"><path d="M16.902 3.457c.254.07.504.137.766.211.89 3.828 1.156 7.496 1.129 11.422q-.005 1.363.008 2.726c.004 3.614-.317 6.993-1.137 10.516-1.574.39-1.574.39-2.43-.11a94 94 0 0 0-1.652-1.422c-.3-.265-.606-.527-.918-.8a345 345 0 0 0-1.938-1.582c-.293-.238-.582-.48-.882-.727-.282-.226-.559-.457-.848-.691l-.773-.746c-1.176-.774-2.22-.762-3.582-.754-2.41.012-2.41.012-3.38-.727-.73-.945-.769-1.425-.777-2.605 0-.352-.004-.703-.004-1.063.004-.367.012-.73.016-1.105-.004-.363-.012-.73-.016-1.105.004-.524.004-.524.004-1.063.004-.32.004-.637.008-.969.223-1.12.598-1.515 1.504-2.195.703-.152.703-.152 1.441-.133l.73.012.911.035L8 10.668v8H6.668V12l-1.606.105-.902.06c-.816.12-.816.12-1.426.515-.64 1.043-.546 2.136-.527 3.32-.004.363-.004.363-.012.73.008.965.035 1.747.5 2.598.985.524 1.887.414 2.993.402 2.742.079 4.054 1.079 5.98 2.938q.979.819 1.977 1.625l.906.746c.8.66.8.66 1.781 1.293.398-3.14.387-6.277.379-9.437-.004-.895 0-1.786 0-2.68.004-2.863-.02-5.7-.379-8.547q-1.113.872-2.227 1.75l-.632.496c-.207.16-.41.32-.621.488l-.614.477c-.504.398-.992.82-1.472 1.242-.766.547-.766.547-2.098.547.035-.883.168-1.484.758-2.152A44 44 0 0 1 11.207 7l.613-.512c.606-.508 1.227-1 1.848-1.488l.613-.508c1.512-1.187 1.512-1.187 2.621-1.035m4.43 7.211c1.637.086 2.344.867 3.438 2.02.296.304.59.613.894.93l.668.714c1.555-.64 2.477-1.82 3.594-3.031.742-.633.742-.633 2.074-.633-.14 1.64-.852 2.324-2.02 3.437-.308.293-.613.586-.93.891l-.718.672c.645 1.55 1.82 2.473 3.035 3.594C32 20 32 20 32 21.332c-1.645-.137-2.324-.848-3.437-2.02q-.44-.455-.891-.93-.333-.351-.672-.714c-1.55.64-2.477 1.82-3.594 3.031-.738.633-.738.633-2.074.633.14-1.64.852-2.324 2.023-3.437.305-.293.614-.586.926-.891l.719-.672c-.508-1.215-1.238-1.953-2.187-2.852C21.37 12.11 21.37 12.11 21 11zm0 0"/></svg>
